app/assets/images/icons/schedule-your-move.svg

<?xml version="1.0" encoding="UTF-8"?>
<svg width="42px" height="47px" viewBox="0 0 42 47" version="1.1" xmlns="http://www.w3.org/2000/svg" xmlns:xlink="http://www.w3.org/1999/xlink">
    <!-- Generator: Sketch 47 (45396) - http://www.bohemiancoding.com/sketch -->
    <title>Index_Mobile_schedule_anchor</title>
    <desc>Created with Sketch.</desc>
    <defs>
        <polygon id="path-1" points="0.0288896168 46.761777 41.4084507 46.761777 41.4084507 0.0198986285 0.0288896168 0.0198986285"></polygon>
    </defs>
    <g id="Move.mil-Index" stroke="none" stroke-width="1" fill="none" fill-rule="evenodd">
        <g id="Index_Mobile" transform="translate(-85.000000, -564.000000)">
            <g id="Group-5" transform="translate(15.000000, 564.000000)">
                <g id="noun_1219134" transform="translate(70.000000, 0.000000)">
                    <g id="Group-3">
                        <mask id="mask-2" fill="white">
                            <use xlink:href="#path-1"></use>
                        </mask>
                        <g id="Clip-2"></g>
                        <path d="M38.519489,17.4112999 L38.519489,41.2896541 C38.519489,42.6636544 37.4419063,43.7769827 36.112021,43.7769827 L5.29642974,43.7769827 C3.96702588,43.7769827 2.88896168,42.6636544 2.88896168,41.2896541 L2.88896168,10.9442457 C2.88896168,9.57074284 3.96702588,8.45691711 5.29642974,8.45691711 L5.77792335,8.45691711 L5.77792335,9.94931425 C5.77792335,10.7736149 6.42456928,11.4417114 7.22240419,11.4417114 L13.0003275,11.4417114 C13.7981625,11.4417114 14.4448084,10.7736149 14.4448084,9.94931425 L14.4448084,8.45691711 L27.4451359,8.45691711 L27.4451359,9.94931425 C27.4451359,10.7736149 28.0917819,11.4417114 28.8896168,11.4417114 L34.6675401,11.4417114 C35.465375,11.4417114 36.112021,10.7736149 36.112021,9.94931425 L36.112021,8.45691711 C37.4419063,8.45691711 38.519489,9.57074284 38.519489,10.9442457 L38.519489,17.4112999 Z M8.66688503,4.47719141 C8.66688503,3.65289073 9.31353095,2.98479428 10.1113659,2.98479428 C10.9092008,2.98479428 11.5558467,3.65289073 11.5558467,4.47719141 L11.5558467,8.45691711 L8.66688503,8.45691711 L8.66688503,4.47719141 Z M30.3340976,4.47719141 C30.3340976,3.65289073 30.9807435,2.98479428 31.7785784,2.98479428 C32.5764134,2.98479428 33.2230593,3.65289073 33.2230593,4.47719141 L33.2230593,8.45691711 L30.3340976,8.45691711 L30.3340976,4.47719141 Z M36.112021,5.47212284 L36.112021,4.47719141 C36.112021,2.00428936 34.1720832,0 31.7785784,0 C29.3850737,0 27.4451359,2.00428936 27.4451359,4.47719141 L27.4451359,5.47212284 L14.4448084,5.47212284 L14.4448084,4.47719141 C14.4448084,2.00428936 12.5048706,0 10.1113659,0 C7.71786112,0 5.77792335,2.00428936 5.77792335,4.47719141 L5.77792335,5.47212284 L5.29642974,5.47212284 C2.37135604,5.47212284 0,7.92214147 0,10.9442457 L0,41.2896541 C0,44.3117583 2.37135604,46.761777 5.29642974,46.761777 L36.112021,46.761777 C39.0370947,46.761777 41.4084507,44.3117583 41.4084507,41.2896541 L41.4084507,10.9442457 C41.4084507,7.92214147 39.0370947,5.47212284 36.112021,5.47212284 L36.112021,5.47212284 Z" id="Fill-1" fill="#0071BC" mask="url(#mask-2)"></path>
                    </g>
                    <polygon id="Fill-4" fill="#0071BC" points="11.2394366 20.4871795 14.1971831 20.4871795 14.1971831 17.474359 11.2394366 17.474359"></polygon>
                    <polygon id="Fill-5" fill="#0071BC" points="5.91549296 20.4871795 8.87323944 20.4871795 8.87323944 17.474359 5.91549296 17.474359"></polygon>
                    <polygon id="Fill-6" fill="#0071BC" points="27.2112676 20.4871795 30.1690141 20.4871795 30.1690141 17.474359 27.2112676 17.474359"></polygon>
                    <polygon id="Fill-7" fill="#0071BC" points="21.8873239 20.4871795 24.8450704 20.4871795 24.8450704 17.474359 21.8873239 17.474359"></polygon>
                    <polygon id="Fill-8" fill="#0071BC" points="33.1267606 20.4871795 36.084507 20.4871795 36.084507 17.474359 33.1267606 17.474359"></polygon>
                    <polygon id="Fill-9" fill="#0071BC" points="16.5633803 20.4871795 19.5211268 20.4871795 19.5211268 17.474359 16.5633803 17.474359"></polygon>
                    <path d="M17.0383961,26.9022652 L11.1921807,32.6513842 L7.80649373,29.3219281 C7.21006166,28.7750843 6.275553,28.8075078 5.7199657,29.3940341 C5.19193632,29.9520083 5.19193632,30.8163119 5.7199657,31.3738022 L10.1489167,35.7291953 C10.7251724,36.2953964 11.659189,36.2953964 12.2354447,35.7291953 L19.1249241,28.9541393 C19.6805114,28.3676131 19.6480324,27.4491091 19.0511082,26.9022652 C18.4842025,26.3830056 17.6053018,26.3830056 17.0383961,26.9022652" id="Fill-10" fill="#0071BC"></path>
                    <path d="M34.0352113,28.3205128 L23.3450704,28.3205128 C22.5399085,28.3205128 21.8873239,28.9948825 21.8873239,29.8269231 C21.8873239,30.6589637 22.5399085,31.3333333 23.3450704,31.3333333 L34.0352113,31.3333333 C34.8403732,31.3333333 35.4929577,30.6589637 35.4929577,29.8269231 C35.4929577,28.9948825 34.8403732,28.3205128 34.0352113,28.3205128" id="Fill-11" fill="#0071BC"></path>
                    <path d="M34.0352113,34.9487179 L23.3450704,34.9487179 C22.5399085,34.9487179 21.8873239,35.6230876 21.8873239,36.4551282 C21.8873239,37.2871688 22.5399085,37.9615385 23.3450704,37.9615385 L34.0352113,37.9615385 C34.8403732,37.9615385 35.4929577,37.2871688 35.4929577,36.4551282 C35.4929577,35.6230876 34.8403732,34.9487179 34.0352113,34.9487179" id="Fill-12" fill="#0071BC"></path>
                </g>
            </g>
        </g>
    </g>
</svg>

<svg width="42" height="47" viewBox="0 0 42 47" xmlns="http://www.w3.org/2000/svg" xmlns:xlink="http://www.w3.org/1999/xlink"><title>Index_Mobile_schedule_anchor</title><defs><path id="a" d="M.029 46.762h41.38V.02H.028z"/></defs><g fill="none" fill-rule="evenodd"><g><mask id="b" fill="#fff"><use xlink:href="#a"/></mask><path d="M38.52 17.411V41.29c0 1.374-1.078 2.487-2.408 2.487H5.296c-1.329 0-2.407-1.113-2.407-2.487V10.944c0-1.373 1.078-2.487 2.407-2.487h.482v1.492c0 .825.647 1.493 1.444 1.493H13c.798 0 1.445-.668 1.445-1.493V8.457h13v1.492c0 .825.647 1.493 1.445 1.493h5.778c.797 0 1.444-.668 1.444-1.493V8.457c1.33 0 2.407 1.114 2.407 2.487v6.467zM8.666 4.477c0-.824.647-1.492 1.444-1.492.798 0 1.445.668 1.445 1.492v3.98h-2.89v-3.98zm21.667 0c0-.824.647-1.492 1.445-1.492.797 0 1.444.668 1.444 1.492v3.98h-2.889v-3.98zm5.778.995v-.995c0-2.473-1.94-4.477-4.333-4.477-2.394 0-4.334 2.004-4.334 4.477v.995h-13v-.995C14.445 2.004 12.505 0 10.11 0 7.718 0 5.778 2.004 5.778 4.477v.995h-.482C2.371 5.472 0 7.922 0 10.944V41.29c0 3.022 2.371 5.472 5.296 5.472h30.816c2.925 0 5.296-2.45 5.296-5.472V10.944c0-3.022-2.37-5.472-5.296-5.472z" fill="#0071BC" mask="url(#b)"/></g><path fill="#0071BC" d="M11.24 20.487h2.957v-3.013H11.24zM5.915 20.487h2.958v-3.013H5.915zM27.211 20.487h2.958v-3.013h-2.958zM21.887 20.487h2.958v-3.013h-2.958zM33.127 20.487h2.958v-3.013h-2.958zM16.563 20.487h2.958v-3.013h-2.958zM17.038 26.902l-5.846 5.75-3.386-3.33a1.494 1.494 0 0 0-2.086.072 1.435 1.435 0 0 0 0 1.98l4.429 4.355c.576.566 1.51.566 2.086 0l6.89-6.775a1.435 1.435 0 0 0-.074-2.052 1.495 1.495 0 0 0-2.013 0M34.035 28.32h-10.69c-.805 0-1.458.675-1.458 1.507 0 .832.653 1.506 1.458 1.506h10.69c.805 0 1.458-.674 1.458-1.506s-.653-1.506-1.458-1.506M34.035 34.949h-10.69c-.805 0-1.458.674-1.458 1.506s.653 1.507 1.458 1.507h10.69c.805 0 1.458-.675 1.458-1.507 0-.832-.653-1.506-1.458-1.506"/></g></svg>
